**kern	**kern	**dynam
*part1	*part1	*part1
*staff2	*staff1	*
*I"Piano	*	*
*clefF4	*clefG2	*
*k[b-e-a-d-]	*k[b-e-a-d-]	*
*M3/4	*M3/4	*
=1	=1	=1
!	!LO:TX:a:B:t=Allegro con fuoco	!
4FF 4F	4r	f
4r	4c 4a- 4cc	.
4FF 4F	4r	.
=	=	=
4EEn 4En	4r	.
4r	4c 4a- 4cc	.
4EE 4E	4r	.
=	=	=
4FF 4F	4r	.
4r	4c 4a- 4cc	.
4FF 4F	4r	.
=	=	=
4CC 4C	4r	.
4r	4c 4a- 4cc	.
4CC 4C	4c 4cc	.
=	=	=
4FF 4F	4a- 4aa-	.
4A- 4c	4a- 4cc	.
4FF 4F	4a- 4aa-	.
=	=	=
4EEn 4En	4g 4gg	.
4A- 4c	4a- 4cc	.
4EE 4E	4g 4gg	.
=	=	=
4FF 4F	4a- 4aa-	.
4A- 4c	4a- 4cc	.
4FF 4F	4a- 4aa-	.
=	=	=
*-	*-	*-
!!!system-decoration: {(s1,s2)}
